;FLAVOR:Marlin
;TIME:3284
;Filament used: 2.05504m
;Layer height: 0.2
;MINX:76.919
;MINY:76.651
;MINZ:0.2
;MAXX:166.42
;MAXY:169.983
;MAXZ:8
;TARGET_MACHINE.NAME:Creality Ender-3
;Generated with Cura_SteamEngine 5.6.0
M140 S50
M105
M190 S50
M104 S200
M105
M109 S200
M82 ;absolute extrusion mode
; Ender 3 Custom Start G-code
G92 E0 ; Reset Extruder
G28 ; Home all axes
G1 Z2.0 F3000 ; Move Z Axis up little to prevent scratching of Heat Bed
G1 X0.1 Y20 Z0.3 F5000.0 ; Move to start position
G1 X0.1 Y200.0 Z0.3 F1500.0 E15 ; Draw the first line
G1 X0.4 Y200.0 Z0.3 F5000.0 ; Move to side a little
G1 X0.4 Y20 Z0.3 F1500.0 E30 ; Draw the second line
G92 E0 ; Reset Extruder
G1 Z2.0 F3000 ; Move Z Axis up little to prevent scratching of Heat Bed
G1 X5 Y20 Z0.3 F5000.0 ; Move over to prevent blob squish
G92 E0
G92 E0
G1 F2700 E-5
;LAYER_COUNT:40
;LAYER:0
M107
G0 F6000 X91.394 Y86.286 Z0.2
;TYPE:SKIRT
G1 F2700 E0
G1 F1200 X91.614 Y86.063 E0.01042
G1 X92.304 Y85.427 E0.04163
G1 X93.074 Y84.832 E0.074
G1 X93.926 Y84.289 E0.1076
G1 X94.79 Y83.841 E0.13997
G1 X95.625 Y83.496 E0.17002
G1 X96.669 Y83.166 E0.20644
G1 X97.729 Y82.93 E0.24255
G1 X98.656 Y82.807 E0.27366
G1 X99.437 Y82.765 E0.29967
G1 X100.526 Y82.747 E0.3359
G1 X110.104 Y82.748 E0.65446
G1 X111.788 Y82.772 E0.71048
G1 X112.79 Y82.801 E0.74382
G1 X115.349 Y82.803 E0.82893
G1 X116.393 Y82.784 E0.86366
G1 X119.035 Y82.7 E0.95158
G1 X121.59 Y82.547 E1.03671
G1 X124.018 Y82.332 E1.11778
G1 X126.567 Y82.033 E1.20314
G1 X129.029 Y81.674 E1.28589
G1 X131.526 Y81.237 E1.37021
G1 X133.997 Y80.732 E1.45409
G1 X136.41 Y80.169 E1.5365
G1 X138.908 Y79.51 E1.62243
G1 X141.279 Y78.812 E1.70464
G1 X143.711 Y78.022 E1.78969
G1 X145.665 Y77.332 E1.85861
G1 X146.519 Y77.066 E1.88836
G1 X147.635 Y76.818 E1.92638
G1 X148.595 Y76.694 E1.95858
G1 X149.382 Y76.657 E1.98478
G1 X149.919 Y76.651 E2.00264
G1 X150.891 Y76.686 E2.03499
G1 X151.822 Y76.8 E2.06619
G1 X152.691 Y76.981 E2.09571
G1 X152.996 Y77.059 E2.10619
G1 X153.929 Y77.339 E2.13858
G1 X154.768 Y77.673 E2.16862
G1 X155.701 Y78.145 E2.2034
G1 X156.526 Y78.661 E2.23576
G1 X157.304 Y79.25 E2.26822
G1 X158.156 Y80.025 E2.30652
G1 X158.901 Y80.839 E2.34322
G1 X159.491 Y81.613 E2.37559
G1 X160.011 Y82.435 E2.40795
G1 X160.457 Y83.302 E2.44037
G1 X160.824 Y84.201 E2.47267
G1 X161.106 Y85.098 E2.50394
G1 X161.356 Y86.218 E2.54211
G1 X161.479 Y87.145 E2.57321
G1 X161.52 Y87.918 E2.59896
G1 X161.538 Y88.994 E2.63475
G1 X161.538 Y91.819 E2.72871
G1 X161.575 Y94.426 E2.81543
G1 X161.684 Y96.992 E2.90085
G1 X161.858 Y99.455 E2.98298
G1 X162.104 Y101.94 E3.06603
G1 X162.432 Y104.499 E3.15184
G1 X162.813 Y106.933 E3.23378
G1 X163.276 Y109.426 E3.31812
G1 X163.798 Y111.863 E3.40101
G1 X164.398 Y114.298 E3.48442
G1 X165.076 Y116.764 E3.56949
G1 X165.501 Y118.134 E3.61719
G1 X165.961 Y119.699 E3.67145
G1 X166.196 Y120.664 E3.70448
G1 X166.341 Y121.627 E3.73687
G1 X166.402 Y122.59 E3.76897
G1 X166.42 Y123.678 E3.80516
G1 X166.419 Y130.264 E4.02421
G1 X166.407 Y130.982 E4.04809
G1 X166.348 Y131.955 E4.08052
G1 X166.203 Y132.912 E4.11271
G1 X166.015 Y133.721 E4.14033
G1 X165.721 Y134.701 E4.17436
G1 X165.387 Y135.54 E4.2044
G1 X164.915 Y136.473 E4.23918
G1 X164.399 Y137.298 E4.27154
G1 X163.809 Y138.077 E4.30404
G1 X163.014 Y138.947 E4.34324
G1 X162.198 Y139.691 E4.37997
G1 X161.451 Y140.261 E4.41122
G1 X160.62 Y140.784 E4.44388
G1 X159.337 Y141.412 E4.49139
G1 X156.772 Y142.463 E4.58358
G1 X154.465 Y143.486 E4.66752
G1 X152.19 Y144.573 E4.75138
G1 X149.959 Y145.718 E4.83479
G1 X147.775 Y146.916 E4.91764
G1 X145.567 Y148.212 E5.00279
G1 X143.457 Y149.532 E5.08557
G1 X141.361 Y150.926 E5.1693
G1 X139.29 Y152.391 E5.25367
G1 X137.26 Y153.913 E5.33806
G1 X135.322 Y155.455 E5.42043
G1 X134.012 Y156.558 E5.47739
G1 X133.515 Y156.963 E5.49871
G1 X132.732 Y157.543 E5.53112
G1 X131.902 Y158.051 E5.56349
G1 X131.094 Y158.454 E5.59352
G1 X127.833 Y159.791 E5.71074
G1 X125.54 Y160.81 E5.7942
G1 X123.267 Y161.895 E5.87797
G1 X120.996 Y163.062 E5.96289
G1 X118.829 Y164.251 E6.04511
G1 X116.651 Y165.531 E6.12913
G1 X114.519 Y166.864 E6.21276
G1 X112.66 Y168.094 E6.2869
G1 X111.792 Y168.61 E6.32048
G1 X110.915 Y169.032 E6.35286
G1 X110.01 Y169.373 E6.38502
G1 X109.266 Y169.59 E6.4108
G1 X108.267 Y169.811 E6.44483
G1 X107.305 Y169.939 E6.47711
G1 X106.503 Y169.977 E6.50381
G1 X105.967 Y169.983 E6.52164
G1 X104.994 Y169.948 E6.55402
G1 X104.03 Y169.829 E6.58633
G1 X103.202 Y169.655 E6.61447
G1 X102.897 Y169.577 E6.62494
G1 X101.965 Y169.298 E6.6573
G1 X101.092 Y168.95 E6.68856
G1 X100.19 Y168.494 E6.72217
G1 X99.366 Y167.979 E6.75449
G1 X98.586 Y167.39 E6.787
G1 X97.729 Y166.61 E6.82554
G1 X97.01 Y165.826 E6.86092
G1 X96.395 Y165.024 E6.89454
G1 X95.864 Y164.185 E6.92756
G1 X95.251 Y163.108 E6.96878
G1 X93.979 Y160.94 E7.05238
G1 X92.632 Y158.788 E7.13682
G1 X91.23 Y156.684 E7.22092
G1 X89.793 Y154.653 E7.30367
G1 X88.267 Y152.619 E7.38824
G1 X86.715 Y150.67 E7.47111
G1 X85.079 Y148.73 E7.55551
G1 X83.418 Y146.872 E7.6384
G1 X81.657 Y145.006 E7.72374
G1 X80.144 Y143.472 E7.7954
G1 X79.494 Y142.747 E7.82779
G1 X78.91 Y141.968 E7.86017
G1 X78.397 Y141.139 E7.89259
G1 X77.961 Y140.27 E7.92493
G1 X77.603 Y139.372 E7.95709
G1 X77.354 Y138.574 E7.98489
G1 X77.105 Y137.463 E8.02276
G1 X76.978 Y136.503 E8.05497
G1 X76.937 Y135.741 E8.08035
G1 X76.919 Y134.646 E8.11677
G1 X76.92 Y125.075 E8.4351
G1 X76.944 Y123.391 E8.49112
G1 X76.973 Y122.389 E8.52446
G1 X76.975 Y119.818 E8.60997
G1 X76.919 Y116.653 E8.71526
G1 X76.92 Y107.067 E9.03409
G1 X76.932 Y106.349 E9.05797
G1 X76.991 Y105.376 E9.09039
G1 X77.136 Y104.419 E9.12259
G1 X77.324 Y103.61 E9.15021
G1 X77.618 Y102.63 E9.18424
G1 X77.952 Y101.791 E9.21428
G1 X78.424 Y100.858 E9.24905
G1 X78.94 Y100.033 E9.28142
G1 X79.532 Y99.252 E9.31401
G1 X80.298 Y98.417 E9.3517
G1 X80.991 Y97.739 E9.38395
G1 X82.143 Y96.65 E9.43667
G1 X83.904 Y94.891 E9.51946
G1 X85.655 Y93.042 E9.60416
G1 X87.296 Y91.202 E9.68616
G1 X88.961 Y89.229 E9.77202
G1 X90.673 Y87.095 E9.86302
G1 X91.394 Y86.286 E9.89906
G0 F6000 X91.679 Y86.567
G1 F1200 X91.886 Y86.357 E9.90887
G1 X92.549 Y85.744 E9.9389
G1 X93.319 Y85.149 E9.97127
G1 X94.111 Y84.644 E10.00251
G1 X94.943 Y84.211 E10.0337
G1 X95.778 Y83.866 E10.06375
G1 X96.756 Y83.556 E10.09788
G1 X97.782 Y83.327 E10.13284
G1 X98.709 Y83.204 E10.16394
G1 X99.444 Y83.165 E10.18842
G1 X100.526 Y83.147 E10.22442
G1 X110.098 Y83.148 E10.54278
G1 X111.776 Y83.172 E10.5986
G1 X112.778 Y83.201 E10.63194
G1 X115.356 Y83.203 E10.71768
G1 X116.406 Y83.184 E10.75261
G1 X119.048 Y83.1 E10.84053
G1 X121.614 Y82.946 E10.92603
G1 X124.065 Y82.729 E11.00787
G1 X126.625 Y82.429 E11.0936
G1 X129.087 Y82.07 E11.17635
G1 X131.603 Y81.63 E11.2613
G1 X134.088 Y81.122 E11.34566
G1 X136.501 Y80.559 E11.42808
G1 X139.018 Y79.895 E11.51466
G1 X141.392 Y79.196 E11.59697
G1 X143.841 Y78.4 E11.68262
G1 X145.784 Y77.714 E11.75115
G1 X146.638 Y77.448 E11.7809
G1 X147.687 Y77.215 E11.81664
G1 X148.614 Y77.094 E11.84773
G1 X149.387 Y77.057 E11.87347
G1 X149.905 Y77.051 E11.8907
G1 X150.842 Y77.083 E11.92189
G1 X151.773 Y77.197 E11.95308
G1 X152.593 Y77.369 E11.98095
G1 X152.881 Y77.442 E11.99083
G1 X153.781 Y77.711 E12.02207
G1 X154.62 Y78.045 E12.05211
G1 X155.489 Y78.484 E12.08449
G1 X156.285 Y78.98 E12.11568
G1 X157.035 Y79.546 E12.14694
G1 X157.861 Y80.295 E12.18402
G1 X158.583 Y81.082 E12.21954
G1 X159.153 Y81.827 E12.25074
G1 X159.656 Y82.619 E12.28195
G1 X160.087 Y83.453 E12.31317
G1 X160.442 Y84.321 E12.34436
G1 X160.724 Y85.218 E12.37564
G1 X160.959 Y86.271 E12.41152
G1 X161.082 Y87.198 E12.44263
G1 X161.12 Y87.925 E12.46684
G1 X161.138 Y89.001 E12.50263
G1 X161.138 Y91.819 E12.59636
G1 X161.175 Y94.443 E12.68364
G1 X161.284 Y97.009 E12.76906
G1 X161.46 Y99.494 E12.85192
G1 X161.707 Y101.991 E12.93538
G1 X162.035 Y104.55 E13.02119
G1 X162.42 Y107.006 E13.10387
G1 X162.885 Y109.51 E13.18858
G1 X163.41 Y111.959 E13.27188
G1 X164.012 Y114.404 E13.35563
G1 X164.69 Y116.87 E13.4407
G1 X165.117 Y118.247 E13.48865
G1 X165.577 Y119.812 E13.5429
G1 X165.801 Y120.724 E13.57414
G1 X165.942 Y121.652 E13.60536
G1 X166.002 Y122.597 E13.63685
G1 X166.02 Y123.678 E13.67281
G1 X166.019 Y130.258 E13.89166
G1 X166.008 Y130.958 E13.91495
G1 X165.952 Y131.896 E13.9462
G1 X165.813 Y132.821 E13.97731
G1 X165.625 Y133.63 E14.00493
G1 X165.349 Y134.553 E14.03698
G1 X165.015 Y135.392 E14.06701
G1 X164.576 Y136.261 E14.09939
G1 X164.08 Y137.057 E14.13059
G1 X163.513 Y137.808 E14.16189
G1 X162.744 Y138.652 E14.19986
G1 X161.955 Y139.373 E14.23541
G1 X161.238 Y139.922 E14.26545
G1 X160.407 Y140.445 E14.2981
G1 X159.185 Y141.042 E14.34334
G1 X156.61 Y142.097 E14.43589
G1 X154.303 Y143.12 E14.51983
G1 X152.007 Y144.217 E14.60446
G1 X149.776 Y145.362 E14.68787
G1 X147.583 Y146.565 E14.77106
G1 X145.365 Y147.867 E14.8566
G1 X143.235 Y149.199 E14.94016
G1 X141.13 Y150.599 E15.02424
G1 X139.059 Y152.064 E15.10862
G1 X137.02 Y153.593 E15.19338
G1 X135.064 Y155.149 E15.27652
G1 X133.759 Y156.248 E15.33326
G1 X133.276 Y156.642 E15.35399
G1 X132.523 Y157.202 E15.3852
G1 X131.723 Y157.693 E15.41642
G1 X130.915 Y158.096 E15.44646
G1 X127.671 Y159.425 E15.56305
G1 X125.378 Y160.444 E15.64651
G1 X123.084 Y161.539 E15.73106
G1 X120.813 Y162.706 E15.81598
G1 X118.626 Y163.906 E15.89895
G1 X116.448 Y165.186 E15.98298
G1 X114.298 Y166.53 E16.06731
G1 X112.439 Y167.76 E16.14145
G1 X111.618 Y168.25 E16.17325
G1 X110.773 Y168.658 E16.20446
G1 X109.898 Y168.989 E16.23557
G1 X109.154 Y169.206 E16.26135
G1 X108.214 Y169.415 E16.29338
G1 X107.286 Y169.539 E16.32452
G1 X106.498 Y169.577 E16.35075
G1 X105.981 Y169.583 E16.36795
G1 X105.043 Y169.551 E16.39917
G1 X104.112 Y169.437 E16.43036
G1 X103.3 Y169.267 E16.45796
G1 X103.011 Y169.194 E16.46787
G1 X102.113 Y168.926 E16.49904
G1 X101.24 Y168.578 E16.5303
G1 X100.402 Y168.155 E16.56152
G1 X99.606 Y167.659 E16.59271
G1 X98.855 Y167.094 E16.62397
G1 X98.024 Y166.34 E16.66129
G1 X97.305 Y165.556 E16.69667
G1 X96.733 Y164.81 E16.72794
G1 X96.212 Y163.987 E16.76034
G1 X95.599 Y162.91 E16.80155
G1 X94.324 Y160.738 E16.88532
G1 X92.965 Y158.566 E16.97054
G1 X91.563 Y156.462 E17.05463
G1 X90.12 Y154.422 E17.13774
G1 X88.587 Y152.379 E17.22269
G1 X87.021 Y150.412 E17.30632
G1 X85.385 Y148.472 E17.39072
G1 X83.709 Y146.597 E17.47437
G1 X81.948 Y144.731 E17.55971
G1 X80.441 Y143.204 E17.63106
G1 X79.814 Y142.507 E17.66224
G1 X79.25 Y141.757 E17.69346
G1 X78.754 Y140.959 E17.72471
G1 X78.332 Y140.122 E17.75588
G1 X77.985 Y139.253 E17.78701
G1 X77.736 Y138.455 E17.81481
G1 X77.501 Y137.41 E17.85043
G1 X77.377 Y136.482 E17.88157
G1 X77.337 Y135.734 E17.90649
G1 X77.319 Y134.646 E17.94268
G1 X77.32 Y125.081 E18.26081
G1 X77.344 Y123.403 E18.31663
G1 X77.373 Y122.401 E18.34997
G1 X77.375 Y119.818 E18.43588
G1 X77.319 Y116.653 E18.54117
G1 X77.32 Y107.073 E18.8598
G1 X77.331 Y106.373 E18.88308
G1 X77.387 Y105.435 E18.91434
G1 X77.526 Y104.51 E18.94545
G1 X77.714 Y103.701 E18.97307
G1 X77.99 Y102.778 E19.00511
G1 X78.324 Y101.939 E19.03515
G1 X78.763 Y101.07 E19.06753
G1 X79.259 Y100.274 E19.09873
G1 X79.827 Y99.522 E19.13007
G1 X80.578 Y98.703 E19.16703
G1 X81.266 Y98.03 E19.19904
G1 X82.418 Y96.941 E19.25176
G1 X84.187 Y95.174 E19.33493
G1 X85.945 Y93.317 E19.41998
G1 X87.602 Y91.46 E19.50275
G1 X89.267 Y89.487 E19.58862
G1 X90.972 Y87.361 E19.67926
G1 X91.679 Y86.567 E19.71462
G0 F6000 X91.978 Y86.833
G1 F1200 X92.158 Y86.651 E19.72314
G1 X92.821 Y86.038 E19.75317
G1 X93.535 Y85.486 E19.78319
G1 X94.296 Y84.999 E19.81324
G1 X95.096 Y84.581 E19.84326
G1 X95.931 Y84.236 E19.87331
G1 X96.844 Y83.946 E19.90517
G1 X97.835 Y83.723 E19.93895
G1 X98.73 Y83.603 E19.96899
G1 X99.451 Y83.565 E19.993
G1 X100.526 Y83.547 E20.02876
G1 X110.092 Y83.548 E20.34693
G1 X111.764 Y83.572 E20.40254
G1 X112.766 Y83.601 E20.43589
G1 X115.363 Y83.603 E20.52226
G1 X116.419 Y83.584 E20.55739
G1 X119.061 Y83.5 E20.64531
G1 X121.638 Y83.345 E20.73117
G1 X124.11 Y83.126 E20.81372
G1 X126.683 Y82.825 E20.89988
G1 X129.145 Y82.466 E20.98263
G1 X131.68 Y82.023 E21.06822
G1 X134.179 Y81.512 E21.15306
G1 X136.592 Y80.949 E21.23547
G1 X139.128 Y80.28 E21.3227
G1 X141.505 Y79.58 E21.40512
G1 X143.971 Y78.778 E21.49137
G1 X145.903 Y78.096 E21.55951
G1 X146.757 Y77.83 E21.58926
G1 X147.739 Y77.612 E21.62272
G1 X148.634 Y77.494 E21.65275
G1 X149.392 Y77.457 E21.67799
G1 X149.892 Y77.451 E21.69462
G1 X150.794 Y77.48 E21.72463
G1 X151.691 Y77.589 E21.75469
G1 X152.496 Y77.757 E21.78204
G1 X152.767 Y77.825 E21.79133
G1 X153.633 Y78.083 E21.82139
G1 X154.472 Y78.417 E21.85142
G1 X155.278 Y78.824 E21.88145
G1 X156.045 Y79.3 E21.91148
G1 X156.767 Y79.843 E21.94152
G1 X157.567 Y80.566 E21.97739
G1 X158.266 Y81.326 E22.01173
G1 X158.816 Y82.042 E22.04176
G1 X159.301 Y82.803 E22.07178
G1 X159.717 Y83.605 E22.10183
G1 X160.06 Y84.441 E22.13188
G1 X160.342 Y85.338 E22.16315
G1 X160.563 Y86.324 E22.19676
G1 X160.683 Y87.219 E22.2268
G1 X160.72 Y87.932 E22.25054
G1 X160.738 Y89.008 E22.28634
G1 X160.738 Y91.819 E22.37983
G1 X160.775 Y94.46 E22.46768
G1 X160.884 Y97.026 E22.5531
G1 X161.062 Y99.533 E22.63669
G1 X161.31 Y102.042 E22.72055
G1 X161.638 Y104.601 E22.80636
G1 X162.027 Y107.079 E22.88979
G1 X162.494 Y109.594 E22.97487
G1 X163.022 Y112.055 E23.05858
G1 X163.626 Y114.51 E23.14267
G1 X164.304 Y116.976 E23.22773
G1 X164.733 Y118.36 E23.27593
G1 X165.189 Y119.908 E23.3296
G1 X165.406 Y120.785 E23.35965
G1 X165.543 Y121.677 E23.38967
G1 X165.602 Y122.604 E23.42056
G1 X165.62 Y123.678 E23.45629
G1 X165.619 Y130.252 E23.67494
G1 X165.609 Y130.935 E23.69766
G1 X165.556 Y131.837 E23.72771
G1 X165.423 Y132.73 E23.75774
G1 X165.235 Y133.539 E23.78536
G1 X164.977 Y134.405 E23.81542
G1 X164.643 Y135.244 E23.84545
G1 X164.236 Y136.05 E23.87548
G1 X163.76 Y136.817 E23.90551
G1 X163.217 Y137.539 E23.93556
G1 X162.474 Y138.357 E23.97231
G1 X161.712 Y139.055 E24.00668
G1 X160.995 Y139.604 E24.03672
G1 X160.231 Y140.086 E24.06676
G1 X159.033 Y140.672 E24.11112
G1 X156.448 Y141.731 E24.20403
G1 X154.141 Y142.754 E24.28797
G1 X151.824 Y143.861 E24.37337
G1 X149.583 Y145.011 E24.45715
G1 X147.39 Y146.215 E24.54036
G1 X145.163 Y147.522 E24.62625
G1 X143.023 Y148.86 E24.71019
G1 X140.899 Y150.272 E24.79502
G1 X138.828 Y151.737 E24.87939
G1 X136.78 Y153.273 E24.96454
G1 X134.806 Y154.843 E25.04843
G1 X133.506 Y155.938 E25.10496
G1 X133.037 Y156.321 E25.1251
G1 X132.313 Y156.861 E25.15514
G1 X131.544 Y157.335 E25.18519
G1 X130.736 Y157.738 E25.21522
G1 X127.509 Y159.059 E25.33119
G1 X125.216 Y160.078 E25.41465
G1 X122.901 Y161.183 E25.49997
G1 X120.63 Y162.35 E25.58489
G1 X118.423 Y163.561 E25.66862
G1 X116.245 Y164.841 E25.75265
G1 X114.077 Y166.196 E25.83768
G1 X112.218 Y167.426 E25.91182
G1 X111.443 Y167.89 E25.94186
G1 X110.631 Y168.284 E25.97188
G1 X109.786 Y168.605 E26.00195
G1 X109.042 Y168.822 E26.02772
G1 X108.161 Y169.019 E26.05775
G1 X107.266 Y169.139 E26.08778
G1 X106.493 Y169.177 E26.11352
G1 X105.994 Y169.183 E26.13012
G1 X105.091 Y169.154 E26.16017
G1 X104.194 Y169.045 E26.19022
G1 X103.397 Y168.879 E26.2173
G1 X103.125 Y168.811 E26.22663
G1 X102.26 Y168.554 E26.25664
G1 X101.42 Y168.221 E26.28669
G1 X100.613 Y167.815 E26.31674
G1 X99.846 Y167.339 E26.34676
G1 X99.123 Y166.797 E26.37682
G1 X98.318 Y166.069 E26.41292
G1 X97.622 Y165.312 E26.44712
G1 X97.071 Y164.596 E26.47717
G1 X96.56 Y163.789 E26.50894
G1 X95.947 Y162.712 E26.55016
G1 X94.669 Y160.535 E26.63412
G1 X93.298 Y158.344 E26.72008
G1 X91.896 Y156.24 E26.80417
G1 X90.447 Y154.191 E26.88764
G1 X88.907 Y152.139 E26.97298
G1 X87.327 Y150.154 E27.05736
G1 X85.691 Y148.214 E27.14176
G1 X84 Y146.322 E27.22616
